images/channel-fileinput-add.svg

<svg width="18" height="18" viewBox="0 0 18 18" fill="none"
	xmlns="http://www.w3.org/2000/svg">
	<path fill-rule="evenodd" clip-rule="evenodd" d="M10 1.52588e-05L8 1.52588e-05V8.00001L0 8.00001L0 10H8L8 18H10L10 10L18 10V8.00002L10 8.00001V1.52588e-05Z" fill="#6116FF"/>
</svg>

<?xml version="1.0" encoding="utf-8"?>
<!-- Generator: Adobe Illustrator 18.0.0, SVG Export Plug-In . SVG Version: 6.00 Build 0)  -->
<!DOCTYPE svg PUBLIC "-//W3C//DTD SVG 1.1//EN" "http://www.w3.org/Graphics/SVG/1.1/DTD/svg11.dtd">
<svg version="1.1" id="Calque_1" xmlns="http://www.w3.org/2000/svg" xmlns:xlink="http://www.w3.org/1999/xlink" x="0px" y="0px"
	 viewBox="0 0 18 18" enable-background="new 0 0 18 18" xml:space="preserve">
<path fill="#1ED760" d="M10,0H8v8H0v2h8v8h2v-8h8V8l-8,0V0z"/>
</svg>
